X: 1
T: Windcalling
C: Gordon Bok 1979
M: 3/4
L: 1/4
S: printed MS of unknown origin (copied in a wedding program)
V: 1 name=Call
V: 2 name=Response
K: C
V: 1
%%indent 60
[| C3 | D2E | E2F | E>DC- | C3 | Z3 | G3- | GAB  |
w: 1.~Fair be the East-ern wind to thee._ | | Gen-*tle as
   c2d| c2A | G3 | Z3 | Z3 | G3 | F2E | D2C |
w: spring-time bree-zes be. | | Fair be the wind to
    C3 | Z3 | Z3 | C3 | A>GA | G3 | Z3 | Z3 |
w: thee. | | Go as you may go,
   Z3 |  G2e | d2c | c2A | G3 | Z3 | Z3 | Z3 | Z3 |]
w: | Though the days pass o-ver thee.
V: 2
[| Z3 | Z3 | Z3 | Z3 | C3 | A>GA | G3 | Z3 | Z3 |
w: | | | | Go as you may go.
   Z3 | G2e | d2c | c2A | G3 | Z3 | Z3 | C3 | D2E |
w: | Though the days pass o-ver thee. | | | Kind now the
   E>DC- | C3 | Z3 | G3- | GAB | c3 |
w: wind to thee._ | | Nev-*er the storms
   A>GG- | G3 | Z3 | Z3 | G3 | F2E | D2C | C3 | Z3 |]
w: sad-den thee._ | | Kind now the wind to thee.
